svg/furkot/freepik/fire.svg

<svg viewBox="0 0 512 512" xmlns="http://www.w3.org/2000/svg"><path d="m441.501 185.768c-5.416-5.419-13.448-7.261-20.688-4.757-7.237 2.506-12.408 8.928-13.312 16.536-.013.112-1.773 11.616-8.866 18.661-1.406 1.395-2.974 2.645-4.622 3.76-4.749-28.347-15.938-74.552-41.482-112.867-40.536-60.805-119.8-79.589-123.155-80.357-9.155-2.104-18.925 2.133-22.941 10.621-3.984 8.419-2.011 18.15 5.269 23.915 1.384 1.416 9.808 10.829 9.069 29.285-.584 14.611-6.49 20.686-26.88 39.494-6.165 5.688-13.154 12.133-20.941 19.92-12.685 12.682-22.579 26.208-30.099 38.488-.373-.608-.752-1.211-1.138-1.808-14.075-21.894-53.886-36.038-61.723-38.651-8.915-2.973-19.616-.307-24.427 7.776-4.688 7.883-4.272 16.984 2.126 23.384 1.314 2.736 6.141 14.872 4.546 42.779-.792 13.853-12.277 30.592-24.434 48.314-17.72 25.819-37.803 55.088-37.803 91.862 0 64.877 63.24 117.002 65.931 119.192 3.565 2.896 8.018 4.477 12.61 4.477h93.912c7.334 0 14.08-4.013 17.579-10.461 3.499-6.446 3.187-14.288-.808-20.44-8.077-12.43-29.616-50.6-32.229-77.622-.694-7.146-.499-14.645.226-21.997 14.272 18.541 30.747 27.208 33.123 28.395 6.283 3.144 13.755 2.754 19.68-1.014 5.928-3.773 9.443-10.378 9.256-17.4-.315-11.914.645-48.149 8.736-72.426 3.008-9.027 9.547-18.326 16.883-26.622 1.205 5.64 2.744 11.822 4.698 18.558 7.166 24.674 30.691 40 53.446 54.818 21.613 14.078 43.965 28.635 50.328 49.19 11.141 35.992-22.371 59.469-23.699 60.381-7.333 4.888-10.603 14-8.048 22.437 2.555 8.435 10.328 14.206 19.141 14.206h100.011c4.275 0 8.437-1.371 11.877-3.91 2.424-1.786 59.347-44.848 59.347-135.613 0-88.981-67.619-157.624-70.499-160.504z"/></svg>

<svg xmlns="http://www.w3.org/2000/svg" viewBox="0 0 512 512"><path d="M441.501 185.768C436.085 180.349 428.053 178.507 420.813 181.011 413.576 183.517 408.405 189.939 407.501 197.547 407.488 197.659 405.728 209.163 398.635 216.208 397.229 217.603 395.661 218.853 394.013 219.968 389.264 191.621 378.075 145.416 352.531 107.101 311.995 46.296 232.731 27.512 229.376 26.744 220.221 24.64 210.451 28.877 206.435 37.365 202.451 45.784 204.424 55.515 211.704 61.28 213.088 62.696 221.512 72.109 220.773 90.565 220.189 105.176 214.283 111.251 193.893 130.059 187.728 135.747 180.739 142.192 172.952 149.979 160.267 162.661 150.373 176.187 142.853 188.467 142.48 187.859 142.101 187.256 141.715 186.659 127.64 164.765 87.829 150.621 79.992 148.008 71.077 145.035 60.376 147.701 55.565 155.784 50.877 163.667 51.293 172.768 57.691 179.168 59.005 181.904 63.832 194.04 62.237 221.947 61.445 235.8 49.96 252.539 37.803 270.261 20.083 296.08 0 325.349 0 362.123 0 427 63.24 479.125 65.931 481.315 69.496 484.211 73.949 485.792 78.541 485.792H172.453C179.787 485.792 186.533 481.779 190.032 475.331 193.531 468.885 193.219 461.043 189.224 454.891 181.147 442.461 159.608 404.291 156.995 377.269 156.301 370.123 156.496 362.624 157.221 355.272 171.493 373.813 187.968 382.48 190.344 383.667 196.627 386.811 204.099 386.421 210.024 382.653 215.952 378.88 219.467 372.275 219.28 365.253 218.965 353.339 219.925 317.104 228.016 292.827 231.024 283.8 237.563 274.501 244.899 266.205 246.104 271.845 247.643 278.027 249.597 284.763 256.763 309.437 280.288 324.763 303.043 339.581 324.656 353.659 347.008 368.216 353.371 388.771 364.512 424.763 331 448.24 329.672 449.152 322.339 454.04 319.069 463.152 321.624 471.589 324.179 480.024 331.952 485.795 340.765 485.795H440.776C445.051 485.795 449.213 484.424 452.653 481.885 455.077 480.099 512 437.037 512 346.272 512 257.291 444.381 188.648 441.501 185.768Z"/></svg>
